imgs/favicon.svg

<svg width="26" height="34" viewBox="0 0 26 34" fill="none" xmlns="http://www.w3.org/2000/svg">
<path d="M0 16H17.0678C21.9511 16 25.9099 19.9588 25.9099 24.8421V24.8421C25.9099 29.7255 21.9511 33.6842 17.0678 33.6842H0V16Z" fill="#65E4A3"/>
<path d="M0 0.526352H11.3927C15.0552 0.526352 18.0243 3.49541 18.0243 7.15793V7.15793C18.0243 10.8204 15.0552 13.7895 11.3927 13.7895H0V0.526352Z" fill="#65E4A3"/>
</svg>

<svg xmlns="http://www.w3.org/2000/svg" width="26" height="34" fill="#65e4a3" xmlns:v="https://vecta.io/nano"><path d="M0 16h17.068c4.883 0 8.842 3.959 8.842 8.842h0c0 4.883-3.959 8.842-8.842 8.842H0V16zM0 .526h11.393c3.662 0 6.632 2.969 6.632 6.632h0c0 3.662-2.969 6.632-6.632 6.632H0V.526z"/></svg>
